X:961
T:Vals efter Pihlblad
T:(SvL Skåne nr. 43)
R:Vals
B:Svenska Låtar Skåne
Z:Patrik Månsson, 2009-01-08,
O:Emislöv, Skåne
S:efter Ludvig Pihlblad
M:3/4
L:1/8
K:C
|: G2 | c3 E Gc | e4 dc | cB ag fd | cB ce G2 | c3 E Gc | e4 dc | cB ag fd | c4 :|
K:G
|: Bc | dB gd bg | dB gd Bd | cA fd af | fd bg d2 | dB gd bg | dB gd Bd | cA fd af | g4 :]
K:C
|: ag | f2 GB df | e2 EG ce | d2 DG Bd | cG ce ag | f2 GB df | e2 EG ce | d2 DG Bd | c2 :|
(:musicend:)

(:music:)
